X:2045
T:Kathleen Hehir's Slide
M:12/8
R:slide
K:D
|:A|dcd e2d c2E EFG|B2B BAG F2D D2A|dcd e2d c2E EFG|ABA GFE D3 z2:|
|:E|F2A d3 c2B G3|ABA G2E B2A F3|F2A d3 c2B G2F|EFG ABc d3 z2:|
|:A|d2c d2e f2d A3|f3 fed c2d ecA|d2c d2e f2d A2F|EFG ABc d3 z2:|
|:f|a2f f2d Adf agf|g2e e2c Ace gfg|a2f f2d Adf agf|gec ABc d3 z2:|
